COLOR/action 16/16/format-text-direction-r2l.svg

<svg height="16" viewBox="0 0 16 16" width="16" xmlns="http://www.w3.org/2000/svg"><path d="m8.9375 1c-.3328586.7619051-.6568662 1.5453768-.9707031 2.3496094-.3043274.7936505-.6180594 1.6345478-.9414063 2.5234375-.3138375.8888903-.6378452 1.8365059-.9707031 2.8417969-.3328586 1.0052902-.6837894 2.0999722-1.0546875 3.2851562h2.3105469c.1046123-.380952.2201172-.771712.34375-1.173828.1331436-.402117.2611327-.804915.3847656-1.2070314h3.8515625l.371094 1.2070314c.133143.402116.250857.792876.355469 1.173828h2.382812c-.370898-1.185184-.72183-2.279866-1.054688-3.2851562-.332858-1.005291-.661027-1.9529066-.984374-2.8417969-.313838-.8888897-.629521-1.729787-.94336-2.5234375-.313838-.8042326-.631731-1.5877043-.955078-2.3496094zm1.0117188 2.4921875c.057061.1587305.1334132.3752581.2285152.6503906.0951.2751318.204491.5933369.328125.953125.133143.3597882.27141.7555894.414063 1.1894531.142652.4338631.291194.8890443.443359 1.3652344h-2.8105466c.1521639-.4761901.2987528-.9313713.4414062-1.3652344.1521632-.4338637.2904297-.8296649.4140625-1.1894531.1236341-.3597881.2330237-.6779932.328125-.953125.0951006-.2751325.1653372-.4916601.2128907-.6503906z" fill="#1a7fd4" stroke-width=".892883" transform="matrix(.99999999925 0 0 1.00000000229 .00000043083 -.00000015106)"/><path d="m-10.188244 31.164998v1.773913h12.814345v-1.773913z" fill="#e95420" stroke-width="1.191941" transform="matrix(-1.09252556614 0 0 1.12745093339 3.86908247239 -22.13700574355)"/><g fill="#c43ac4" stroke-width="1.010213" transform="matrix(-.98988972673 0 0 .83759906018 1.68101815461 -12.08534998614)"><path d="m-2.3426671 15.622451v4.040853l3.03064061-2.020426z"/><path d="m-2.3426671 24.714372v4.040854l3.03064061-2.020427z"/><path d="m-2.3426671 20.168411v4.040855l3.03064061-2.020428z"/></g><g stroke-width=".892883" transform="matrix(.99999999925 0 0 1.00000000229 .00000043083 -.00000015106)"><path d="m1.4433594 2.4414062-.4433594.25 2.9316406 1.6542969.0683594-.0371093v-.4238282zm8.5058594.5507813c-.0475535.1587298-.1177901.3752585-.2128907.6503906-.0951013.2751322-.2044909.5933369-.328125.953125-.1236328.3597882-.2618993.755589-.4140625 1.1894531-.1426534.4338631-.2892423.8890439-.4414062 1.3652344h.1621094c.0939722-.2919655.1889022-.59031.2792968-.8652344.1521632-.4338637.2904297-.8296649.4140625-1.1894531.1236341-.3597881.2330237-.6779932.328125-.953125.0951006-.2751325.1653372-.4916601.2128907-.6503906.0570612.1587305.1334132.3752581.2285152.6503906.095102.2751318.204491.5933369.328125.953125.133143.3597882.27141.7555894.414063 1.1894531.090416.274991.186679.5731941.28125.8652344h.162109c-.152165-.4761905-.300707-.9313713-.443359-1.3652344-.142653-.4338641-.28092-.8296649-.414063-1.1894531-.123634-.3597881-.23302-.6779928-.328125-.953125-.095101-.2751321-.171454-.4916608-.2285152-.6503906zm-8.5058594 3.2578125-.4433594.25 2.9316406 1.6542969.0683594-.0390625v-.4238282zm6.5957031 2.8691406c-.1236329.4021167-.2516221.8049146-.3847656 1.2070314-.1236329.402115-.2391377.792877-.34375 1.173828h-2.1503907c-.0555205.176159-.1037177.319654-.1601562.5h2.3105469c.1046123-.380952.2201172-.771712.34375-1.173828.1331436-.402117.2611327-.804915.3847656-1.2070314h3.8515625l.371094 1.2070314c.133143.402116.250857.792876.355469 1.173828h2.382812c-.056439-.180346-.104636-.323841-.160156-.5h-2.222656c-.104613-.380951-.222326-.771713-.355469-1.173828l-.371094-1.2070314zm-6.5957031.9394534-.4433594.25 3 1.691406v-.5zm-.4433594 4.441406v.5h14v-.5z" opacity=".2"/><path d="m4 1-3 1.6914062.4433594.25 2.5566406-1.4414062zm4.9375 0c-.3328586.7619051-.6568662 1.5453768-.9707031 2.3496094-.3043274.7936505-.6180594 1.6345478-.9414063 2.5234375-.3138375.8888903-.6378452 1.8365058-.9707031 2.8417969-.3328586 1.0052902-.6837894 2.0999722-1.0546875 3.2851562h.1601562c.3093448-.981508.6123229-1.932838.8945313-2.7851562.3328579-1.0052906.6568656-1.9529066.9707031-2.8417969.323347-.8888893.637079-1.7297863.9414063-2.5234375.3138369-.8042323.6378445-1.5877042.9707031-2.3496094h2.125c.323347.7619052.64124 1.5453771.955078 2.3496094.313839.7936512.629521 1.6345482.94336 2.5234375.323347.8888903.651516 1.8365063.984374 2.8417969.282208.8523182.585187 1.8036482.894532 2.7851562h.160156c-.370898-1.185184-.72183-2.279866-1.054688-3.2851562-.332857-1.0052911-.661028-1.9529066-.984374-2.8417969-.313838-.8888897-.629521-1.729787-.94336-2.5234375-.313838-.8042326-.631731-1.5877043-.955078-2.3496094zm-5.0058594 3.8457031-2.9316406 1.6542969.4433594.25 2.5566406-1.4414062v-.4238282zm4.7832032 2.8046875c-.0543271.1687906-.1063666.3255553-.1621094.5h2.8105466c-.05572-.1743716-.107472-.3312778-.162109-.5zm-4.7832032 1.0039063-2.9316406 1.6542971.4433594.25 2.5566406-1.4433596v-.4238282zm-2.9316406 4.3457031v.5h14v-.5z" fill="#fff" opacity=".3"/></g></svg>

<?xml version="1.0" encoding="UTF-8" standalone="no"?>
<svg
   xmlns:dc="http://purl.org/dc/elements/1.1/"
   xmlns:cc="http://creativecommons.org/ns#"
   xmlns:rdf="http://www.w3.org/1999/02/22-rdf-syntax-ns#"
   xmlns:svg="http://www.w3.org/2000/svg"
   xmlns="http://www.w3.org/2000/svg"
   xmlns:sodipodi="http://sodipodi.sourceforge.net/DTD/sodipodi-0.dtd"
   xmlns:inkscape="http://www.inkscape.org/namespaces/inkscape"
   viewBox="0 0 16 16"
   version="1.1"
   id="svg26"
   sodipodi:docname="format-text-direction-r2l.svg"
   inkscape:version="0.92.4 (5da689c313, 2019-01-14)"
   width="16"
   height="16">
  <metadata
     id="metadata32">
    <rdf:RDF>
      <cc:Work
         rdf:about="">
        <dc:format>image/svg+xml</dc:format>
        <dc:type
           rdf:resource="http://purl.org/dc/dcmitype/StillImage" />
        <dc:title></dc:title>
      </cc:Work>
    </rdf:RDF>
  </metadata>
  <defs
     id="defs30" />
  <sodipodi:namedview
     pagecolor="#ffffff"
     bordercolor="#666666"
     borderopacity="1"
     objecttolerance="10"
     gridtolerance="10"
     guidetolerance="10"
     inkscape:pageopacity="0"
     inkscape:pageshadow="2"
     inkscape:window-width="1920"
     inkscape:window-height="1016"
     id="namedview28"
     showgrid="true"
     inkscape:zoom="43.560137"
     inkscape:cx="12"
     inkscape:cy="9.4772472"
     inkscape:window-x="0"
     inkscape:window-y="27"
     inkscape:window-maximized="1"
     inkscape:current-layer="g24">
    <inkscape:grid
       type="xygrid"
       id="grid820" />
  </sodipodi:namedview>
  <g
     transform="matrix(1.0454545,0,0,1.0648148,-0.545455,-8.861111)"
     id="g24">
    <path
       style="fill:#1a7fd4;stroke-width:0.89288336"
       d="M 8.9375,1 C 8.6046414,1.7619051 8.2806338,2.5453768 7.9667969,3.3496094 7.6624695,4.1432599 7.3487375,4.9841572 7.0253906,5.8730469 6.7115531,6.7619372 6.3875454,7.7095528 6.0546875,8.7148438 5.7218289,9.720134 5.3708981,10.814816 5,12 h 2.3105469 c 0.1046123,-0.380952 0.2201172,-0.771712 0.34375,-1.173828 0.1331436,-0.402117 0.2611327,-0.804915 0.3847656,-1.2070314 h 3.8515625 l 0.371094,1.2070314 C 12.394862,11.228288 12.512576,11.619048 12.617188,12 H 15 C 14.629102,10.814816 14.27817,9.720134 13.945312,8.7148438 13.612454,7.7095528 13.284285,6.7619372 12.960938,5.8730469 12.6471,4.9841572 12.331417,4.1432599 12.017578,3.3496094 11.70374,2.5453768 11.385847,1.7619051 11.0625,1 Z m 1.0117188,2.4921875 c 0.057061,0.1587305 0.1334132,0.3752581 0.2285152,0.6503906 0.0951,0.2751318 0.204491,0.5933369 0.328125,0.953125 0.133143,0.3597882 0.27141,0.7555894 0.414063,1.1894531 0.142652,0.4338631 0.291194,0.8890443 0.443359,1.3652344 H 8.5527344 C 8.7048983,7.1742005 8.8514872,6.7190193 8.9941406,6.2851562 9.1463038,5.8512925 9.2845703,5.4554913 9.4082031,5.0957031 9.5318372,4.735915 9.6412268,4.4177099 9.7363281,4.1425781 9.8314287,3.8674456 9.9016653,3.650918 9.9492188,3.4921875 Z"
       id="path2"
       transform="matrix(0.95652178,0,0,0.93913045,0.52173959,8.3217391)"
       inkscape:connector-curvature="0"
       sodipodi:nodetypes="cccsccccccccscccccscccccccc" />
    <g
       transform="matrix(-1.0450245,0,0,1.0588235,2.19721,-13.72526)"
       id="g22">
      <g
         transform="translate(-1.938128,1.187604)"
         id="g12"
         style="fill:#e95420">
        <path
           d="m -10.188244,31.164998 v 1.773913 H 2.626101 v -1.773913 z"
           id="path4"
           inkscape:connector-curvature="0"
           style="stroke-width:1.19194055" />
      </g>
      <g
         id="g20"
         style="fill:#c43ac4;stroke-width:1.01021302"
         transform="matrix(0.90605635,0,0,0.74291398,0.06463023,10.102986)">
        <path
           d="m -2.3426671,15.622451 v 4.040853 l 3.03064061,-2.020426 z"
           id="path14"
           inkscape:connector-curvature="0" />
        <path
           d="m -2.3426671,24.714372 v 4.040854 l 3.03064061,-2.020427 z"
           id="path16"
           inkscape:connector-curvature="0" />
        <path
           d="m -2.3426671,20.168411 v 4.040855 l 3.03064061,-2.020428 z"
           id="path18"
           inkscape:connector-curvature="0" />
      </g>
    </g>
    <g
       id="g834"
       transform="matrix(-1.0450245,0,0,1.0588235,2.19721,-13.72526)">
      <g
         style="fill:#e95420"
         id="g824"
         transform="translate(-1.938128,1.187604)" />
      <g
         transform="matrix(0.90605635,0,0,0.74291398,0.06463023,10.102986)"
         style="fill:#c43ac4;stroke-width:1.01021302"
         id="g832" />
    </g>
    <path
       style="fill:#000000;stroke-width:0.89288336;fill-opacity:1;opacity:0.2"
       d="M 1.4433594 2.4414062 L 1 2.6914062 L 3.9316406 4.3457031 L 4 4.3085938 L 4 3.8847656 L 1.4433594 2.4414062 z M 9.9492188 2.9921875 C 9.9016653 3.1509173 9.8314287 3.367446 9.7363281 3.6425781 C 9.6412268 3.9177103 9.5318372 4.235915 9.4082031 4.5957031 C 9.2845703 4.9554913 9.1463038 5.3512921 8.9941406 5.7851562 C 8.8514872 6.2190193 8.7048983 6.6742001 8.5527344 7.1503906 L 8.7148438 7.1503906 C 8.808816 6.8584251 8.903746 6.5600806 8.9941406 6.2851562 C 9.1463038 5.8512925 9.2845703 5.4554913 9.4082031 5.0957031 C 9.5318372 4.735915 9.6412268 4.4177099 9.7363281 4.1425781 C 9.8314287 3.8674456 9.9016653 3.650918 9.9492188 3.4921875 C 10.00628 3.650918 10.082632 3.8674456 10.177734 4.1425781 C 10.272836 4.4177099 10.382225 4.735915 10.505859 5.0957031 C 10.639002 5.4554913 10.777269 5.8512925 10.919922 6.2851562 C 11.010338 6.5601472 11.106601 6.8583503 11.201172 7.1503906 L 11.363281 7.1503906 C 11.211116 6.6742001 11.062574 6.2190193 10.919922 5.7851562 C 10.777269 5.3512921 10.639002 4.9554913 10.505859 4.5957031 C 10.382225 4.235915 10.272839 3.9177103 10.177734 3.6425781 C 10.082633 3.367446 10.00628 3.1509173 9.9492188 2.9921875 z M 1.4433594 6.25 L 1 6.5 L 3.9316406 8.1542969 L 4 8.1152344 L 4 7.6914062 L 1.4433594 6.25 z M 8.0390625 9.1191406 C 7.9154296 9.5212573 7.7874404 9.9240552 7.6542969 10.326172 C 7.530664 10.728287 7.4151592 11.119049 7.3105469 11.5 L 5.1601562 11.5 C 5.1046357 11.676159 5.0564385 11.819654 5 12 L 7.3105469 12 C 7.4151592 11.619048 7.5306641 11.228288 7.6542969 10.826172 C 7.7874405 10.424055 7.9154296 10.021257 8.0390625 9.6191406 L 11.890625 9.6191406 L 12.261719 10.826172 C 12.394862 11.228288 12.512576 11.619048 12.617188 12 L 15 12 C 14.943561 11.819654 14.895364 11.676159 14.839844 11.5 L 12.617188 11.5 C 12.512575 11.119049 12.394862 10.728287 12.261719 10.326172 L 11.890625 9.1191406 L 8.0390625 9.1191406 z M 1.4433594 10.058594 L 1 10.308594 L 4 12 L 4 11.5 L 1.4433594 10.058594 z M 1 14.5 L 1 15 L 15 15 L 15 14.5 L 1 14.5 z "
       transform="matrix(0.95652178,0,0,0.93913045,0.52173959,8.3217391)"
       id="path837" />
    <path
       style="fill:#ffffff;stroke-width:0.89288336;fill-opacity:1;opacity:0.3"
       d="M 4 1 L 1 2.6914062 L 1.4433594 2.9414062 L 4 1.5 L 4 1 z M 8.9375 1 C 8.6046414 1.7619051 8.2806338 2.5453768 7.9667969 3.3496094 C 7.6624695 4.1432599 7.3487375 4.9841572 7.0253906 5.8730469 C 6.7115531 6.7619372 6.3875454 7.7095527 6.0546875 8.7148438 C 5.7218289 9.720134 5.3708981 10.814816 5 12 L 5.1601562 12 C 5.469501 11.018492 5.7724791 10.067162 6.0546875 9.2148438 C 6.3875454 8.2095532 6.7115531 7.2619372 7.0253906 6.3730469 C 7.3487376 5.4841576 7.6624696 4.6432606 7.9667969 3.8496094 C 8.2806338 3.0453771 8.6046414 2.2619052 8.9375 1.5 L 11.0625 1.5 C 11.385847 2.2619052 11.70374 3.0453771 12.017578 3.8496094 C 12.331417 4.6432606 12.647099 5.4841576 12.960938 6.3730469 C 13.284285 7.2619372 13.612454 8.2095532 13.945312 9.2148438 C 14.22752 10.067162 14.530499 11.018492 14.839844 12 L 15 12 C 14.629102 10.814816 14.27817 9.720134 13.945312 8.7148438 C 13.612455 7.7095527 13.284284 6.7619372 12.960938 5.8730469 C 12.6471 4.9841572 12.331417 4.1432599 12.017578 3.3496094 C 11.70374 2.5453768 11.385847 1.7619051 11.0625 1 L 8.9375 1 z M 3.9316406 4.8457031 L 1 6.5 L 1.4433594 6.75 L 4 5.3085938 L 4 4.8847656 L 3.9316406 4.8457031 z M 8.7148438 7.6503906 C 8.6605167 7.8191812 8.6084772 7.9759459 8.5527344 8.1503906 L 11.363281 8.1503906 C 11.307561 7.976019 11.255809 7.8191128 11.201172 7.6503906 L 8.7148438 7.6503906 z M 3.9316406 8.6542969 L 1 10.308594 L 1.4433594 10.558594 L 4 9.1152344 L 4 8.6914062 L 3.9316406 8.6542969 z M 1 13 L 1 13.5 L 15 13.5 L 15 13 L 1 13 z "
       transform="matrix(0.95652178,0,0,0.93913045,0.52173959,8.3217391)"
       id="path841" />
  </g>
</svg>
